symbols/web/storefront/materialsymbolsrounded/storefront_wght600gradN25fill1_48px.svg

<svg xmlns="http://www.w3.org/2000/svg" height="48" width="48"><path d="M9.15 42.75q-1.55 0-2.675-1.125Q5.35 40.5 5.35 38.9V22.3Q3.85 21 3.5 19.1q-.35-1.9.2-3.65l2.1-6.7q.5-1.55 1.65-2.425 1.15-.875 2.7-.875h27.4q1.6 0 2.85.9t1.7 2.4l2.2 6.7q.55 1.75.125 3.6Q44 20.9 42.6 22.2v16.7q0 1.6-1.125 2.725T38.75 42.75Zm19.3-22.45q1.3 0 2.25-.85t.75-2.1l-1.2-8.05H25.7v7.95q0 1.25.775 2.15.775.9 1.975.9Zm-9.3 0q1.3 0 2.225-.875t.925-2.175V9.3h-4.55l-1.2 8.05q-.2 1.2.575 2.075.775.875 2.025.875Zm-9 0q1.15 0 1.95-.775t.9-1.875l1.3-8.35H9.7l-2.25 7.1q-.5 1.55.35 2.725t2.35 1.175Zm27.65 0q1.45 0 2.325-1.15Q41 18 40.5 16.4l-2.2-7.1h-4.6l1.25 8.35q.15 1.1.925 1.875.775.775 1.925.775Z"/></svg>

<svg xmlns="http://www.w3.org/2000/svg" height="48" width="48"><path d="M9.15 42.75Q7.6 42.75 6.475 41.625Q5.35 40.5 5.35 38.9V22.3Q3.85 21 3.5 19.1Q3.15 17.2 3.7 15.45L5.8 8.75Q6.3 7.2 7.45 6.325Q8.6 5.45 10.15 5.45H37.55Q39.15 5.45 40.4 6.35Q41.65 7.25 42.1 8.75L44.3 15.45Q44.85 17.2 44.425 19.05Q44 20.9 42.6 22.2V38.9Q42.6 40.5 41.475 41.625Q40.35 42.75 38.75 42.75ZM28.45 20.3Q29.75 20.3 30.7 19.45Q31.65 18.6 31.45 17.35L30.25 9.3H25.7V17.25Q25.7 18.5 26.475 19.4Q27.25 20.3 28.45 20.3ZM19.15 20.3Q20.45 20.3 21.375 19.425Q22.3 18.55 22.3 17.25V9.3H17.75L16.55 17.35Q16.35 18.55 17.125 19.425Q17.9 20.3 19.15 20.3ZM10.15 20.3Q11.3 20.3 12.1 19.525Q12.9 18.75 13 17.65L14.3 9.3H9.7Q9.7 9.3 9.7 9.3Q9.7 9.3 9.7 9.3L7.45 16.4Q6.95 17.95 7.8 19.125Q8.65 20.3 10.15 20.3ZM37.8 20.3Q39.25 20.3 40.125 19.15Q41 18 40.5 16.4L38.3 9.3Q38.3 9.3 38.3 9.3Q38.3 9.3 38.3 9.3H33.7L34.95 17.65Q35.1 18.75 35.875 19.525Q36.65 20.3 37.8 20.3Z"/></svg>
